X:1
T:Title
%%score { ( 1 4 ) | ( 2 3 ) }
L:1/8
M:6/8
K:Db
V:1 treble nm="Grand Piano"
V:4 treble 
V:2 bass 
V:3 bass 
V:1
 z3 z2[Q:1/4=100] [FA] | [FA]2 [Fd] [Fd][Ac][GB] | [FA]3 F2 F | AAG F2 [CE] |[M:5/8] D-D- D3 | %5
[M:1/8] [FA] |[M:3/4] [Fd]2 [Fd][Fd] [Fc][FB] | [Ae]3 [Ec]2 [EA] | [CE][CA] [Fd] [Ec]2 [DB] | %9
[M:5/8] [A,CA]-[A,CA]- [A,CA]3 |[M:1/8] A |[M:3/4] [EG]2 Ac cB | [FA]3 d2 [Fd] | dd d c2 d | %14
 e4- eA | [Fd]2 [Fd][Fd] [Ec][Fd] |[M:7/8] [Af]2 [Fd] [Gd]3 [CAc]/[DGB]/ | %17
[M:3/4] [DFA]2 [FA] [E=GB]2 [E_Gc] |[M:5/8] d-d- d3 |[M:1/8] [A,FA] |[M:3/4] [DFA]3 [A,DF]3 | %21
 [DGB]3 [DFA]3 | [CEG]2 [CEG][CEG] F[A,CE] | F6 | [Fd]2 [Fd][Fd] [Ec][Fd] | %25
[M:7/8] [Af]2 [Fd] [Gd]3 [CAc]/[DGB]/ |[M:3/4] [DFA]2 [FA] [E=GB]2 [E_Gc] | %27
[M:13/8] d2- [Gd-] [F-d]2 F z z z z z z2 |] %28
V:2
 z3 z2 [D,A,] | [D,A,]2 [D,A,] [D,A,][D,B,][D,C] | [D,D]3 [D,A,D]2 [D,A,D] | %3
 [F,A,D][F,A,D][G,B,E] [A,D]2 [A,,G,] |[M:5/8] [D,F,]-[D,F,]- [D,F,]3 |[M:1/8] [D,A,] | %6
[M:3/4] [B,,B,]2 [B,,B,][B,,B,] [C,=A,][D,B,] | [B,,A,]3 [A,,A,]2 [C,A,] | %8
 [E,A,][E,A,] [E,A,] [E,=G,]2 [E,G,] |[M:5/8] A,,-A,,- A,,3 |[M:1/8] F | %11
[M:3/4] z2[K:treble] FA AG | z2 z F2 [D,A,] | [B,F][B,F] [B,F] [F,=A,F]2 [B,F] | %14
 [A,CG]4- [A,CG][A,CG] | [D,A,]2 [D,A,] [D,A,]2 [D,A,] |[M:7/8] [D,D]2 [D,_C] [G,B,]3 G,/G,/ | %17
[M:3/4] A,2 A, A,,2 A,, |[M:5/8] z2 B, A,2 |[M:1/8] D, |[M:3/4] D,3 D,3 | D,3 D,3 | %22
 A,,2 .A,,2 DA,, | D,2 F, B,2 [A,DF] | [D,A,]2 [D,A,] [D,A,]2 [D,A,] | %25
[M:7/8] [D,D]2 [D,_C] [G,B,]3 G,/G,/ |[M:3/4] A,2 A, A,,2 A,, |[M:13/8] z2 B, .A,3 z z z z z z2 |] %28
V:3
 x6 | x6 | x6 | x6 |[M:5/8] x5 |[M:1/8] x |[M:3/4] x6 | x6 | x6 |[M:5/8] x5 |[M:1/8] x | %11
[M:3/4] A,,6[K:treble] | D,,6 | x6 | x6 | x6 |[M:7/8] x7 |[M:3/4] x6 |[M:5/8] D,-D,- D,3 | %19
[M:1/8] x |[M:3/4] x6 | x6 | z2 z .A,,3 | x6 | x6 |[M:7/8] x7 |[M:3/4] x6 | %27
[M:13/8] D,-D,- D,3 z z z z z z z2 |] %28
V:4
 x6 | x6 | x6 | x6 |[M:5/8] x5 |[M:1/8] x |[M:3/4] x6 | x6 | x6 |[M:5/8] x5 |[M:1/8] x | %11
[M:3/4] x6 | x6 | x6 | x6 | x6 |[M:7/8] x7 |[M:3/4] x6 |[M:5/8] [DF]2 G F2 |[M:1/8] x |[M:3/4] x6 | %21
 x6 | x6 | [A,D]3 D2 A | x6 |[M:7/8] x7 |[M:3/4] x6 |[M:13/8] .[DF]3 z z z z z z z z z2 |] %28

